assets/img/i-d-puntualidad.svg

<svg width="90" height="90" viewBox="0 0 90 90" fill="none" xmlns="http://www.w3.org/2000/svg">
<path d="M47.0643 85.4011C40.437 85.407 33.9569 83.3128 28.4439 79.3834C22.9308 75.4541 18.6324 69.8661 16.0924 63.3265C13.5524 56.7868 12.885 49.5892 14.1746 42.6442C15.4641 35.6993 18.6527 29.3189 23.337 24.3103C28.0213 19.3017 33.9908 15.8899 40.4903 14.5064C46.9899 13.1229 53.7276 13.83 59.8509 16.5382C65.9743 19.2463 71.2083 23.8339 74.8908 29.7206C78.5733 35.6072 80.5389 42.5285 80.5389 49.6088C80.5291 59.0931 77.0001 68.1865 70.7253 74.8957C64.4505 81.605 55.9419 85.3828 47.0643 85.4011ZM47.0643 20.3242C41.6429 20.3242 36.3433 22.0417 31.8356 25.2595C27.3279 28.4773 23.8145 33.051 21.7398 38.402C19.6652 43.7531 19.1223 49.6413 20.18 55.3219C21.2377 61.0026 23.8483 66.2206 27.6818 70.3161C31.5153 74.4117 36.3995 77.2007 41.7167 78.3307C47.0339 79.4606 52.5454 78.8807 57.5541 76.6642C62.5628 74.4477 66.8438 70.6943 69.8558 65.8784C72.8677 61.0626 74.4754 55.4007 74.4754 49.6088C74.4656 41.8452 71.5745 34.4026 66.436 28.913C61.2976 23.4233 54.3312 20.3346 47.0643 20.3242Z" fill="#9D3BFF"/>
<path d="M47.055 61.0022C46.3179 61.0036 45.606 60.7149 45.0554 60.1912L32.8728 48.8077C32.5688 48.5265 32.3197 48.1841 32.1397 47.8001C31.9596 47.4161 31.8521 46.9979 31.8233 46.5695C31.7945 46.141 31.845 45.7108 31.9718 45.3032C32.0987 44.8956 32.2994 44.5187 32.5626 44.194C32.8258 43.8693 33.1463 43.6032 33.5058 43.4108C33.8653 43.2184 34.2567 43.1035 34.6577 43.0728C35.0587 43.042 35.4615 43.0959 35.843 43.2315C36.2245 43.367 36.5773 43.5815 36.8812 43.8627L46.8791 53.1989L81.4091 14.8352C81.6862 14.5267 82.0176 14.2796 82.3841 14.108C82.7507 13.9363 83.1453 13.8434 83.5455 13.8347C83.9457 13.826 84.3435 13.9016 84.7163 14.0571C85.0891 14.2126 85.4296 14.4451 85.7184 14.7412C86.0071 15.0374 86.2384 15.3913 86.3991 15.783C86.5598 16.1746 86.6467 16.5962 86.6548 17.0237C86.663 17.4512 86.5923 17.8762 86.4467 18.2745C86.3011 18.6728 86.0835 19.0366 85.8063 19.3451L49.2583 60.0033C48.9729 60.3197 48.6306 60.5712 48.252 60.7429C47.8734 60.9145 47.4663 61.0027 47.055 61.0022Z" fill="#00C4D1"/>
<path d="M16.9776 15.6956C20.9655 15.6956 24.1983 12.2418 24.1983 7.98131C24.1983 3.72083 20.9655 0.267029 16.9776 0.267029C12.9897 0.267029 9.75684 3.72083 9.75684 7.98131C9.75684 12.2418 12.9897 15.6956 16.9776 15.6956Z" fill="#00C4D1"/>
<path d="M5.25833 27.2472C7.74821 27.2472 9.76666 25.0908 9.76666 22.4307C9.76666 19.7707 7.74821 17.6143 5.25833 17.6143C2.76845 17.6143 0.75 19.7707 0.75 22.4307C0.75 25.0908 2.76845 27.2472 5.25833 27.2472Z" fill="#9D3BFF"/>
<path d="M84.7417 89.278C87.2316 89.278 89.2501 87.1216 89.2501 84.4615C89.2501 81.8014 87.2316 79.645 84.7417 79.645C82.2518 79.645 80.2334 81.8014 80.2334 84.4615C80.2334 87.1216 82.2518 89.278 84.7417 89.278Z" fill="#9D3BFF"/>
</svg>

<svg xmlns="http://www.w3.org/2000/svg" width="90" height="90" fill="none" xmlns:v="https://vecta.io/nano"><path d="M47.064 85.4c-6.627.006-13.107-2.088-18.62-6.018s-9.81-9.517-12.35-16.057a38.07 38.07 0 0 1-1.918-20.682c1.3-6.945 4.478-13.325 9.162-18.334S33.99 15.9 40.5 14.506s13.237-.676 19.36 2.032 11.357 7.296 15.04 13.182S80.54 42.53 80.54 49.61c-.01 9.484-3.54 18.578-9.814 25.287S55.942 85.383 47.064 85.4zm0-65.077c-5.42 0-10.72 1.717-15.23 4.935s-8.02 7.792-10.096 13.143a31.15 31.15 0 0 0-1.56 16.92c1.058 5.68 3.668 10.9 7.502 14.994S36.4 77.2 41.717 78.33s10.83.55 15.837-1.666 9.3-5.97 12.302-10.786 4.62-10.478 4.62-16.27c-.01-7.764-2.9-15.206-8.04-20.696s-12.105-8.578-19.372-8.59z" fill="#9d3bff"/><path d="M47.055 61.002c-.737.001-1.45-.287-2-.8L32.873 48.808a3.25 3.25 0 0 1-.733-1.008 3.43 3.43 0 0 1-.316-1.23 3.48 3.48 0 0 1 .149-1.266 3.37 3.37 0 0 1 .59-1.11 3.1 3.1 0 0 1 .943-.783 2.91 2.91 0 0 1 1.152-.338 2.87 2.87 0 0 1 1.185.16 3.06 3.06 0 0 1 1.038.63l10 9.337L81.4 14.836c.277-.3.6-.556.975-.727a2.87 2.87 0 0 1 1.16-.273 2.89 2.89 0 0 1 1.17.222c.372.155.713.388 1.002.684a3.27 3.27 0 0 1 .681 1.042c.16.392.248.813.256 1.24s-.062.852-.208 1.25a3.29 3.29 0 0 1-.64 1.071L49.258 60.003a3.06 3.06 0 0 1-1.006.74 2.89 2.89 0 0 1-1.197.259zM16.978 15.696c3.988 0 7.22-3.454 7.22-7.714S20.966.267 16.978.267 9.757 3.72 9.757 7.98s3.233 7.714 7.22 7.714z" fill="#00c4d1"/><path d="M5.258 27.247c2.5 0 4.508-2.156 4.508-4.816s-2.018-4.816-4.508-4.816S.75 19.77.75 22.43s2.018 4.816 4.508 4.816zm79.484 62.03c2.5 0 4.508-2.156 4.508-4.817s-2.02-4.817-4.508-4.817-4.508 2.156-4.508 4.817 2.018 4.817 4.508 4.817z" fill="#9d3bff"/></svg>
